svgs/activity_launcher.svg

<svg width="192" height="192" viewBox="0 0 192 192" fill="none" xmlns="http://www.w3.org/2000/svg">
<path d="M69 116C75.6357 111 87.4683 109 96 109C104.532 109 116.364 111 123 116M81.3066 110C79.8846 106.333 77.9887 107.1 77.9887 87.5C77.9887 67.9 89.9962 53.6667 96 49C102.004 53.6667 114.011 67.9 114.011 87.5C114.011 107.1 112.115 106.333 110.693 110" stroke="black" stroke-width="12" stroke-linecap="round" stroke-linejoin="round"/>
<path d="M99.5752 133.5C98.6922 131.771 97.9745 130 96 130C94.0255 130 93.3078 131.771 92.4248 133.5C90.4503 137.366 96 144 96 144C96 144 101.55 137.366 99.5752 133.5Z" stroke="black" stroke-width="10" stroke-linecap="round" stroke-linejoin="round"/>
<rect x="48" y="22" width="96" height="148" rx="6" stroke="black" stroke-width="12" stroke-linejoin="round"/>
</svg>

<svg xmlns="http://www.w3.org/2000/svg" width="192" height="192" fill="none" viewBox="0 0 192 192"><path stroke="#000" stroke-linecap="round" stroke-linejoin="round" stroke-width="12" d="M69 116c6.636-5 18.468-7 27-7s20.364 2 27 7m-41.693-6c-1.422-3.667-3.318-2.9-3.318-22.5S89.996 53.667 96 49c6.004 4.667 18.011 18.9 18.011 38.5s-1.896 18.833-3.318 22.5"/><path stroke="#000" stroke-linecap="round" stroke-linejoin="round" stroke-width="10" d="M99.575 133.5c-.883-1.729-1.6-3.5-3.575-3.5s-2.692 1.771-3.575 3.5C90.45 137.366 96 144 96 144s5.55-6.634 3.575-10.5"/><rect width="96" height="148" x="48" y="22" stroke="#000" stroke-linejoin="round" stroke-width="12" rx="6"/></svg>
